X: 1
T: the Ruby Wedding
C: Neil Barron
R: jig
Z: 2009 John Chambers <jc:trillian.mit.edu>
S: printed MS of unknown origin (from J. McColl)
M: 6/8
L: 1/8
K: G
B/c/ \
| "G"ded d2B | "D7"AGA "G"B2c | "G/B"ded "C"gfe | "G"dBG "D7"ABc \
| "G"ded d2B | "D7"AGA "E7"Bcd | "Am"cag "D7"fga | "G"g3 g2 :|
|: F/G/ \
| "D7"A2F Ddc | "G"B2A Ged | "Am"c2B Aag | "D7"f2e dga \
| "G"b2b "D"afa | "Em"g{a}bg "Bm"fed | "Am"cag "D7"fga | "G"g3 g2 :|
